src/assets/filled/BatteryEmpty.svg

<svg width="24" height="24" viewBox="0 0 24 24"  xmlns="http://www.w3.org/2000/svg">
<path d="M12.93 4.79004H7.35C3.25 4.79004 2 6.04004 2 10.14V13.86C2 17.96 3.25 19.21 7.35 19.21H12.93C17.03 19.21 18.28 17.96 18.28 13.86V10.14C18.28 6.04004 17.03 4.79004 12.93 4.79004Z" />
<path d="M20.42 9.00047C20.28 8.99047 20.1 8.98047 19.9 8.98047C19.51 8.98047 19.2 9.29047 19.2 9.68047V14.3305C19.2 14.7205 19.51 15.0305 19.9 15.0305C20.1 15.0305 20.27 15.0205 20.44 15.0105C22 14.8305 22 13.7305 22 12.9305V11.0705C22 10.2705 22 9.17047 20.42 9.00047Z" />
</svg>

<?xml version="1.0" encoding="UTF-8"?>
<svg width="24" height="24" viewBox="0 0 24 24" xmlns="http://www.w3.org/2000/svg">
 <path d="m12.93 4.79h-5.58c-4.1 0-5.35 1.25-5.35 5.35v3.72c0 4.1 1.25 5.35 5.35 5.35h5.58c4.1 0 5.35-1.25 5.35-5.35v-3.72c0-4.1-1.25-5.35-5.35-5.35z"/>
 <path d="m20.42 9.0005c-0.14-0.01-0.32-0.02-0.52-0.02-0.39 0-0.7 0.31-0.7 0.7v4.65c0 0.39 0.31 0.7 0.7 0.7 0.2 0 0.37-0.01 0.54-0.02 1.56-0.18 1.56-1.28 1.56-2.08v-1.86c0-0.8 0-1.9-1.58-2.07z"/>
</svg>
